X:1
T:Title
%%score { ( 1 3 ) | ( 2 4 ) }
L:1/8
Q:1/4=100
M:4/4
K:D
V:1 treble nm="Grand Piano"
V:3 treble 
V:2 bass 
V:4 bass 
V:1
 A3 B AFGA | B4 [FA]4 | c3 c ccBA | [FA]6 z2 | A3 B AF[Fd][FA] | c4 B4 | A3 A ABcA | [Fd]6 z2 | %8
w: C.~Austin~Miles * * * * *||||||||
 A3 B AFGA | B6 z2 | [CG]3 [CA] [CG][CE][DF][EG] | A6 z2 | [FA]3 [FA] [FA][FA][FB][Fc] | %13
w: |||||
 e2 d2 c2 B2 | AFD[B,EG] [DF]2[K:bass] [G,CE]2 | D6 z2 |] %16
w: |||
V:2
 [D,F,D]3 [D,G,D] [D,F,D][D,A,D][E,A,C][F,A,D] | [G,DG]4 [D,D]4 | %2
 [A,EG]3 [A,EG] [A,EG][A,EG][A,DG][A,CG] | [D,D]6 z2 | [D,F,D]3 [D,G,D] [D,F,D][D,A,D][D,A,][D,D] | %5
 [G,DG]4 [G,DG]4 | [A,DF]3 [A,DF] [A,CG][A,DG][A,EG][A,CG] | [D,D]6 z2 | %8
 [D,F,D]3 [D,G,D] [D,F,D][D,A,D][E,A,C][F,A,D] | [G,DG]2 [F,^D][F,D] [E,E]2 z2 | %10
 [A,,E,]3 [A,,E,] [A,,E,][A,,E,][A,,A,][A,,A,] | [F,A,D]2 [E,G,][E,G,] [D,F,]2 z2 | %12
 [D,D]3 [D,D] [D,D][D,D][D,D][D,A,] | [G,B,G]2 [G,B,G]2 [G,CG]2 [G,DG]2 | %14
 A,[K:bass]F,D,G, A,2 A,,2 | z2 G,G, F,2 z2 |] %16
V:3
 x8 | x8 | x8 | x8 | x8 | x8 | x8 | x8 | x8 | z2 FF G2 z2 | x8 | z2 CC D2 z2 | x8 | x8 | %14
 x6[K:bass] x2 | F,2 B,B, A,2 z2 |] %16
V:4
 x8 | x8 | x8 | x8 | x8 | x8 | x8 | x8 | x8 | x8 | x8 | x8 | x8 | x8 | x[K:bass] x7 | D,6 z2 |] %16

